SVG_Azure_All/SQL Database Performance Recommendation.svg

<?xml version="1.0" encoding="UTF-8" standalone="no"?>
<!-- Generated by Microsoft Visio, SVG Export SQL Database Performance Recommendation.svg Page-1 -->

<svg
   xmlns:dc="http://purl.org/dc/elements/1.1/"
   xmlns:cc="http://creativecommons.org/ns#"
   xmlns:rdf="http://www.w3.org/1999/02/22-rdf-syntax-ns#"
   xmlns:svg="http://www.w3.org/2000/svg"
   xmlns="http://www.w3.org/2000/svg"
   xmlns:sodipodi="http://sodipodi.sourceforge.net/DTD/sodipodi-0.dtd"
   xmlns:inkscape="http://www.inkscape.org/namespaces/inkscape"
   width="0.78740144in"
   height="0.74802709in"
   viewBox="0 0 56.692902 53.857743"
   xml:space="preserve"
   class="st6"
   version="1.1"
   id="svg39"
   sodipodi:docname="SQL Database Performance Recommendation.svg"
   style="font-size:12px;overflow:visible;color-interpolation-filters:sRGB;fill:none;fill-rule:evenodd;stroke-linecap:square;stroke-miterlimit:3"
   inkscape:version="0.92.5 (2060ec1f9f, 2020-04-08)"><metadata
   id="metadata45"><rdf:RDF><cc:Work
       rdf:about=""><dc:format>image/svg+xml</dc:format><dc:type
         rdf:resource="http://purl.org/dc/dcmitype/StillImage" /></cc:Work></rdf:RDF></metadata><defs
   id="defs43" /><sodipodi:namedview
   pagecolor="#ffffff"
   bordercolor="#666666"
   borderopacity="1"
   objecttolerance="10"
   gridtolerance="10"
   guidetolerance="10"
   inkscape:pageopacity="0"
   inkscape:pageshadow="2"
   inkscape:window-width="640"
   inkscape:window-height="480"
   id="namedview41"
   showgrid="false"
   inkscape:zoom="1.8979166"
   inkscape:cx="37.795281"
   inkscape:cy="16.819066"
   inkscape:window-x="0"
   inkscape:window-y="0"
   inkscape:window-maximized="0"
   inkscape:current-layer="svg39" />
	<style
   type="text/css"
   id="style2">
	<![CDATA[
		.st1 {fill:#b3ecfc;stroke:none;stroke-linecap:butt;stroke-width:0.0190405}
		.st2 {fill:#00bcf2;stroke:none;stroke-linecap:butt;stroke-width:0.0190405}
		.st3 {fill:#66d7f7;stroke:none;stroke-linecap:butt;stroke-width:0.0190405}
		.st4 {fill:#fcf37e;stroke:none;stroke-linecap:butt;stroke-width:0.0190405}
		.st5 {fill:#bfb500;stroke:none;stroke-linecap:butt;stroke-width:0.0190405}
		.st6 {fill:none;fill-rule:evenodd;font-size:12px;overflow:visible;stroke-linecap:square;stroke-miterlimit:3}
	]]>
	</style>

	<g
   id="g37"
   transform="translate(-5.66929,-5.3864267)">
		<title
   id="title4">Page-1</title>
		<g
   id="group1335-1"
   transform="translate(5.66929,-34.0157)">
			<title
   id="title6">SQL Database Performance Recommendation</title>
			<g
   id="group1336-2">
				<title
   id="title8">Sheet.1336</title>
				<g
   id="shape1337-3"
   transform="translate(0,-3.84805)">
					<title
   id="title10">Sheet.1337</title>
					<path
   d="M 49.13,50.94 H 22.68 L 17.11,43.25 H 0 V 93.26 H 52.91 V 54.79 h -3.78 z"
   class="st1"
   id="path12"
   inkscape:connector-curvature="0"
   style="fill:#b3ecfc;stroke:none;stroke-width:0.0190405;stroke-linecap:butt" />
				</g>
				<g
   id="shape1338-5"
   transform="translate(3.77635,-3.84805)">
					<title
   id="title15">Sheet.1338</title>
					<rect
   x="0"
   y="54.786598"
   width="49.134899"
   height="38.473301"
   class="st2"
   id="rect17"
   style="fill:#00bcf2;stroke:none;stroke-width:0.0190405;stroke-linecap:butt" />
				</g>
				<g
   id="shape1339-7"
   transform="translate(3.77635,-3.84805)">
					<title
   id="title20">Sheet.1339</title>
					<path
   d="M 0,93.26 34.02,54.79 H 0 Z"
   class="st3"
   id="path22"
   inkscape:connector-curvature="0"
   style="fill:#66d7f7;stroke:none;stroke-width:0.0190405;stroke-linecap:butt" />
				</g>
				<g
   id="shape1340-9"
   transform="translate(26.4556)">
					<title
   id="title25">Sheet.1340</title>
					<rect
   x="0"
   y="54.783001"
   width="30.237301"
   height="38.476898"
   class="st4"
   id="rect27"
   style="fill:#fcf37e;stroke:none;stroke-width:0.0190405;stroke-linecap:butt" />
				</g>
				<g
   id="shape1341-11"
   transform="translate(30.2355,-3.84805)">
					<title
   id="title30">Sheet.1341</title>
					<path
   d="m 7.56,66.33 h 15.12 v 3.85 H 7.56 Z m -7.56,0 h 3.78 v 3.85 H 0 Z m 7.56,7.69 h 15.12 v 3.85 H 7.56 Z m -7.56,0 h 3.78 v 3.85 H 0 Z m 7.56,7.7 h 15.12 v 3.84 H 7.56 Z m -7.56,0 h 3.78 v 3.84 H 0 Z m 7.56,7.7 h 15.12 v 3.84 H 7.56 Z m -7.56,0 h 3.78 v 3.84 H 0 Z"
   class="st5"
   id="path32"
   inkscape:connector-curvature="0"
   style="fill:#bfb500;stroke:none;stroke-width:0.0190405;stroke-linecap:butt" />
				</g>
			</g>
		</g>
	</g>
</svg>

<?xml version="1.0" encoding="UTF-8" standalone="no"?>
<!DOCTYPE svg PUBLIC "-//W3C//DTD SVG 1.1//EN" "http://www.w3.org/Graphics/SVG/1.1/DTD/svg11.dtd">
<!-- Generated by Microsoft Visio, SVG Export SQL Database Performance Recommendation.svg Page-1 -->
<svg xmlns="http://www.w3.org/2000/svg" xmlns:xlink="http://www.w3.org/1999/xlink" xmlns:ev="http://www.w3.org/2001/xml-events"
		width="0.944882in" height="1.29528in" viewBox="0 0 68.0315 93.2598" xml:space="preserve" color-interpolation-filters="sRGB"
		class="st6">
	<style type="text/css">
	<![CDATA[
		.st1 {fill:#b3ecfc;stroke:none;stroke-linecap:butt;stroke-width:0.0190405}
		.st2 {fill:#00bcf2;stroke:none;stroke-linecap:butt;stroke-width:0.0190405}
		.st3 {fill:#66d7f7;stroke:none;stroke-linecap:butt;stroke-width:0.0190405}
		.st4 {fill:#fcf37e;stroke:none;stroke-linecap:butt;stroke-width:0.0190405}
		.st5 {fill:#bfb500;stroke:none;stroke-linecap:butt;stroke-width:0.0190405}
		.st6 {fill:none;fill-rule:evenodd;font-size:12px;overflow:visible;stroke-linecap:square;stroke-miterlimit:3}
	]]>
	</style>

	<g>
		<title>Page-1</title>
		<g id="group1320-1" transform="translate(5.66929,-34.0157)">
			<title>SQL Database Performance Recommendation</title>
			<g id="group1321-2">
				<title>Sheet.1321</title>
				<g id="shape1322-3" transform="translate(0,-3.84805)">
					<title>Sheet.1322</title>
					<path d="M49.13 50.94 L22.68 50.94 L17.11 43.25 L0 43.25 L0 93.26 L52.91 93.26 L52.91 54.79 L49.13 54.79 L49.13
								 50.94 Z" class="st1"/>
				</g>
				<g id="shape1323-5" transform="translate(3.77635,-3.84805)">
					<title>Sheet.1323</title>
					<rect x="0" y="54.7866" width="49.1349" height="38.4733" class="st2"/>
				</g>
				<g id="shape1324-7" transform="translate(3.77635,-3.84805)">
					<title>Sheet.1324</title>
					<path d="M0 93.26 L34.02 54.79 L0 54.79 L0 93.26 Z" class="st3"/>
				</g>
				<g id="shape1325-9" transform="translate(26.4556,0)">
					<title>Sheet.1325</title>
					<rect x="0" y="54.783" width="30.2373" height="38.4769" class="st4"/>
				</g>
				<g id="shape1326-11" transform="translate(30.2355,-3.84805)">
					<title>Sheet.1326</title>
					<path d="M7.56 66.33 L22.68 66.33 L22.68 70.18 L7.56 70.18 L7.56 66.33 ZM0 66.33 L3.78 66.33 L3.78 70.18 L0 70.18
								 L0 66.33 ZM7.56 74.02 L22.68 74.02 L22.68 77.87 L7.56 77.87 L7.56 74.02 ZM0 74.02 L3.78 74.02 L3.78
								 77.87 L0 77.87 L0 74.02 ZM7.56 81.72 L22.68 81.72 L22.68 85.56 L7.56 85.56 L7.56 81.72 ZM0 81.72
								 L3.78 81.72 L3.78 85.56 L0 85.56 L0 81.72 ZM7.56 89.42 L22.68 89.42 L22.68 93.26 L7.56 93.26 L7.56
								 89.42 ZM0 89.42 L3.78 89.42 L3.78 93.26 L0 93.26 L0 89.42 Z" class="st5"/>
				</g>
			</g>
		</g>
	</g>
</svg>
